svgs/regular/send-back.svg

<svg xmlns="http://www.w3.org/2000/svg" viewBox="0 0 640 512"><!--! Font Awesome Pro 6.6.0 by @fontawesome - https://fontawesome.com License - https://fontawesome.com/license (Commercial License) Copyright 2024 Fonticons, Inc. --><path d="M192 48c8.8 0 16 7.2 16 16l0 128c0 8.8-7.2 16-16 16L64 208c-8.8 0-16-7.2-16-16L48 64c0-8.8 7.2-16 16-16l128 0zM64 0C28.7 0 0 28.7 0 64L0 192c0 35.3 28.7 64 64 64l128 0c35.3 0 64-28.7 64-64l0-128c0-35.3-28.7-64-64-64L64 0zM576 304c8.8 0 16 7.2 16 16l0 128c0 8.8-7.2 16-16 16l-128 0c-8.8 0-16-7.2-16-16l0-128c0-8.8 7.2-16 16-16l128 0zM448 256c-35.3 0-64 28.7-64 64l0 128c0 35.3 28.7 64 64 64l128 0c35.3 0 64-28.7 64-64l0-128c0-35.3-28.7-64-64-64l-128 0zM160 288l0 64c0 35.3 28.7 64 64 64l128 0 0-96c0-53 43-96 96-96l32 0 0-64c0-35.3-28.7-64-64-64L288 96l0 96c0 53-43 96-96 96l-32 0z"/></svg>

<svg xmlns="http://www.w3.org/2000/svg" viewBox="0 0 640 512"><!--! Font Awesome Pro 6.4.2 by @fontawesome - https://fontawesome.com License - https://fontawesome.com/license (Commercial License) Copyright 2023 Fonticons, Inc. --><path d="M192 48c8.8 0 16 7.2 16 16V192c0 8.8-7.2 16-16 16H64c-8.8 0-16-7.2-16-16V64c0-8.8 7.2-16 16-16H192zM64 0C28.7 0 0 28.7 0 64V192c0 35.3 28.7 64 64 64H192c35.3 0 64-28.7 64-64V64c0-35.3-28.7-64-64-64H64zM576 304c8.8 0 16 7.2 16 16V448c0 8.8-7.2 16-16 16H448c-8.8 0-16-7.2-16-16V320c0-8.8 7.2-16 16-16H576zM448 256c-35.3 0-64 28.7-64 64V448c0 35.3 28.7 64 64 64H576c35.3 0 64-28.7 64-64V320c0-35.3-28.7-64-64-64H448zM160 288v64c0 35.3 28.7 64 64 64H352V320c0-53 43-96 96-96h32V160c0-35.3-28.7-64-64-64H288v96c0 53-43 96-96 96H160z"/></svg>
